X:1
T: The Swedish Two-Step
C:
N:From Sam Davidson, Belfair, Washington, originally from the Shetland Islands.
N:The tune is in the Evergreen Fiddler Tunebook Volume I, published by the
N:Washington State Old Time Fiddlers Association in 2005, currently out of print.
Z:Stuart Williams, abc's by V.T. Williams
M:C|
K:G
"G"B4BcBA|G2B2D2Bc|d2d2edBc|d6ef|"C"g4f2gf|
"G"e2d2B2G2|1"D"A2d2"A7"^c2e2|"D"d2c2!tr!B2A2:|2"D"A2G2E2D2|"G"G4G4||
"Em"B2e2e2ef|g2e2e2ef|g2f2e2d2|B4d4|"D"A2d2d2de|
f2d2d2fg|a2g2f2e2|d2c2B2A2|"G"B4BcBA|G2B2D2Bc|
d2d2edBc|d6ef|"C"g4f2gf|"G"e2d2B2G2|"D"A2G2E2D2|"G"G4G4|]

